Adwaita++-Dark/status/symbolic/numlock-disabled-symbolic.svg

<svg height="16" width="16" xmlns="http://www.w3.org/2000/svg">
  <g fill="#e6ddff" opacity=".3">
    <path d="m3.0004 0a2.0001 2.0002 0 0 0 -1.9882 1.779l-.99998 9a2.0001 2.0002 0 0 0 1.98818 2.221h11.9996a2.0001 2.0002 0 0 0 1.988-2.221l-1-9a2.0001 2.0002 0 0 0 -1.988-1.779zm5.9996 2v2 5h2v2h-5.9997v-2h1.9997v-4.5l-1.9997.5v-2z"/>
    <path d="m.00052738 13.203v.547c0 1.212 1.03807262 2.25 2.24987262 2.25h11.4996c1.212 0 2.25-1.038 2.25-2.25v-.547c-.532.485-1.225.797-2 .797h-11.9996c-.7746 0-1.46828-.312-1.99987262-.797z"/>
  </g>
</svg>

<svg xmlns="http://www.w3.org/2000/svg" width="16" height="16" version="1.1">
 <g style="opacity:0.3">
  <path style="fill:#E6DDFF" d="M 3.0004,0 A 2.0001,2.0002 0 0 0 1.0122,1.779 L 0.01222,10.779 A 2.0001,2.0002 0 0 0 2.0004,13 H 14 A 2.0001,2.0002 0 0 0 15.988,10.779 L 14.988,1.779 A 2.0001,2.0002 0 0 0 13,0 Z M 9,2 V 4 9 H 11 V 11 H 5.0003 V 9 H 7 V 4.5 L 5.0003,5 V 3 Z"/>
  <path style="fill:#E6DDFF" d="M 5.2738e-4,13.203 V 13.75 C 5.2738e-4,14.962 1.0386,16 2.2504,16 H 13.75 C 14.962,16 16,14.962 16,13.75 V 13.203 C 15.468,13.688 14.775,14 14,14 H 2.0004 C 1.2258,14 0.53212,13.688 5.2738e-4,13.203 Z"/>
 </g>
</svg>
